X:497
T: UNSER BRUDER MALCHER
N: E1754
O: Europa, Mitteleuropa, Deutschland, Schlesien
R: Scherz - Lied
M: 3/4
L: 1/8
K: F
 | F3GAB | c2c3
A | BAB2G2 | A4
C2 | F3GAB | c2c3
A | BAB2G2 | A2z
AAB | c3cdc | cBB
GGA | B3BcB | BAA2z2
c2A2G2 | F3GAB
cBA2G2 | F4z2

